X: 114
T: REEL: Boy in the Gap
C: C: Trad.; S: Various
C: Set Leaders: Alexey, Anton
Z: Anton Zille ed.; JACKB at The Session
N: https://thesession.org/members/26966/sets/99333
R: Reel
M: 4/4
L: 1/8
Q: 1/2=100
K: Dmaj
|:D2FA dedc|A2GE =cEGE|D2FA dedc|A2GE EDD2:||
|:~f3g fedf|~e3f edcB|ABcd edcd|eaag eaag|
~f3g fedf|egfd edcB|A2 B/c/d e2dc|A2GE EDD2:||
|:df~f2 df~f2|ce~e2 gece|dffe ~f3g|a2ge edde|
f2de fdAF|G2BG EFGE|D2FA dedc|1 A2GE EDD2:|2 A2GE =cEGE||

